app/images/icon/qualities/6.svg

<svg width="50" height="73" viewBox="0 0 50 73" fill="none" xmlns="http://www.w3.org/2000/svg">
<path fill-rule="evenodd" clip-rule="evenodd" d="M42.4443 17.1812C40.0766 14.8171 37.3243 12.965 34.2477 11.6624L34.2326 11.6549C33.2297 11.2333 32.0686 11.5947 31.4803 12.5057L29.731 15.2237C29.2935 15.0731 28.8261 14.9827 28.3435 14.9451C28.2002 14.9376 28.0494 14.93 27.8986 14.93C27.4915 14.93 27.0918 14.9752 26.7072 15.058L29.7913 10.2545L30.7489 8.76376C31.42 7.71725 31.1184 6.31683 30.0627 5.64676L21.8208 0.353851C21.4438 0.112946 21.0215 0 20.5992 0C19.8528 0 19.1213 0.368927 18.6915 1.039L4.3568 23.355C3.68569 24.4016 3.98732 25.8019 5.043 26.472L6.6039 27.4734L5.89509 28.5801L5.18627 29.6869L4.74137 30.3796C4.07026 31.426 4.37189 32.8265 5.42757 33.4965L6.76979 34.3548C7.81794 35.0249 9.22049 34.7238 9.8916 33.6697L10.3365 32.977L11.0452 31.8702L11.754 30.7635L13.2923 31.7498C13.6694 31.9907 14.0916 32.1036 14.5138 32.1036C15.2603 32.1036 15.9919 31.7348 16.4217 31.0646L22.3033 21.9018C22.424 22.4439 22.62 22.9559 22.8915 23.4302C23.1253 23.8443 23.4043 24.2283 23.7285 24.5671C24.8144 25.7115 26.3602 26.4193 28.072 26.3665C31.0957 26.2762 33.5539 23.8217 33.6369 20.8026C33.6595 20.0648 33.5389 19.357 33.3051 18.702C34.8811 19.5603 36.344 20.652 37.6486 21.9545C41.2379 25.5383 43.2135 30.2967 43.2135 35.3638C43.2135 40.4308 41.2379 45.1891 37.6486 48.7729C35.4165 51.0016 32.7321 52.6052 29.7988 53.5012C29.5802 53.5689 29.3539 53.5991 29.1277 53.5991H21.7078C20.456 53.5991 19.4456 52.5902 19.4456 51.3404V50.8359H8.63994V53.599V57.1677V61C8.87369 60.985 9.11499 60.9773 9.34868 60.9773H24.2112H26.9182H39.8353H41.6149H41.7883C44.3672 60.5181 46.3353 58.2669 46.3353 55.5565C46.3353 53.8851 45.5888 52.3867 44.4124 51.3778C45.8602 49.5559 47.0592 47.5531 47.9716 45.3999C49.3138 42.2226 50 38.8496 50 35.3787C50 31.9078 49.3213 28.5349 47.9716 25.3576C46.6671 22.2934 44.8121 19.5378 42.4443 17.1812ZM27.8985 22.7151C26.9409 22.7151 26.1415 22.0676 25.9078 21.1791C25.8625 21.0135 25.84 20.8328 25.84 20.6521C25.84 19.6357 26.5789 18.7924 27.5517 18.6268C27.6648 18.6042 27.7854 18.5967 27.9061 18.5967C29.0447 18.5967 29.9647 19.5152 29.9647 20.6521C29.9647 21.789 29.0371 22.7151 27.8985 22.7151ZM40.8156 57.4838C41.1021 57.4838 41.3736 57.4236 41.6149 57.3107C42.2784 57.0095 42.7459 56.3394 42.7535 55.5488C42.7535 54.9239 42.4519 54.3743 41.9919 54.0204C41.8788 53.9376 41.7506 53.8623 41.6224 53.8021C41.3811 53.6891 41.1096 53.6289 40.8231 53.6289C39.7523 53.6289 38.8927 54.4948 38.8927 55.5563C38.8927 55.8575 38.9606 56.1512 39.0888 56.4072C39.3978 57.0471 40.0539 57.4838 40.8156 57.4838ZM26.5027 48C27.3262 48 28 47.2698 28 46.3773V45.6227C28 44.7302 27.3262 44 26.5027 44H1.49733C0.673797 44 0 44.7302 0 45.6227V46.3773C0 47.2698 0.673797 48 1.49733 48H26.5027ZM0 73C0 67.7268 3.90292 63.4038 8.85926 63.0237C9.09419 63.0079 9.32912 63 9.57164 63H42V66.8163V70.6247C42 71.939 40.9845 73 39.7265 73H0Z" fill="#FFC59E"/>
</svg>

<svg width="50" height="73" fill="none" xmlns="http://www.w3.org/2000/svg"><path fill-rule="evenodd" clip-rule="evenodd" d="M42.444 17.181a25.738 25.738 0 00-8.196-5.519l-.015-.007a2.244 2.244 0 00-2.753.85l-1.749 2.719a5.6 5.6 0 00-1.832-.294c-.408 0-.807.045-1.192.128l3.084-4.803.958-1.491a2.253 2.253 0 00-.686-3.117L21.82.354A2.253 2.253 0 0020.599 0c-.746 0-1.478.369-1.907 1.039L4.357 23.355a2.253 2.253 0 00.686 3.117l1.56 1.001-.708 1.107-.709 1.107-.445.693a2.253 2.253 0 00.687 3.116l1.342.859a2.26 2.26 0 003.122-.685l.444-.693.71-1.107.708-1.107 1.538.987c.377.24.8.354 1.222.354.746 0 1.478-.37 1.908-1.04l5.881-9.162c.121.542.317 1.054.588 1.528.234.414.513.798.838 1.137a5.726 5.726 0 004.343 1.8c3.024-.09 5.482-2.545 5.565-5.564a5.712 5.712 0 00-.332-2.101 19.035 19.035 0 014.344 3.252 18.819 18.819 0 015.565 13.41c0 5.067-1.976 9.825-5.565 13.409a18.9 18.9 0 01-7.85 4.728 2.265 2.265 0 01-.671.098h-7.42a2.257 2.257 0 01-2.262-2.259v-.504H8.64V61c.234-.015.475-.023.709-.023h32.439c2.58-.459 4.547-2.71 4.547-5.42 0-1.672-.746-3.17-1.923-4.18a25.748 25.748 0 003.56-5.977A25.623 25.623 0 0050 35.379c0-3.471-.679-6.844-2.028-10.021a25.661 25.661 0 00-5.528-8.177zm-14.546 5.534a2.054 2.054 0 01-2.058-2.063 2.056 2.056 0 012.066-2.055c1.139 0 2.059.918 2.059 2.055a2.068 2.068 0 01-2.067 2.063zm12.918 34.769c.286 0 .558-.06.799-.173a1.95 1.95 0 001.139-1.762c0-.625-.302-1.175-.762-1.529a2.267 2.267 0 00-.37-.218 1.928 1.928 0 00-2.534 2.605 1.91 1.91 0 001.728 1.077zM26.503 48c.823 0 1.497-.73 1.497-1.623v-.754C28 44.73 27.326 44 26.503 44H1.497C.674 44 0 44.73 0 45.623v.754C0 47.27.674 48 1.497 48h25.006zM0 73c0-5.273 3.903-9.596 8.86-9.976.234-.016.47-.024.712-.024H42v7.625C42 71.939 40.984 73 39.727 73H0z" fill="#FFC59E"/></svg>
